X: 913
T: The Humors of Castle of Comer.
B:O'Neill's 913
Z:Transcribed by Tom Keays (htkeays@mailbox.syr.edu)
Z:abc 1.6
M:6/8
R:Jig
L:1/8
K:Em
G/2F/2 | EFE EFA | BcB B2^c | ded dcB | ABA FED  |
EFE EFG | BcB B2^c | dcB AFD | E3 E2 :|
|| e | eBe eBe | efg f2e | ded dcB | ABA FED  |
eBe eBe | efg f2e | dcB AFD | E3 E2 :|


